( This file was created automatically using CamBam )
( http://www.brusselsprout.org/CAMBAM )
( 7/26/2008 1:53:59 AM )
( T0 : 2.5 )
G21
G90
G64
G00 Z1.5
( M3 )
( T0 : 2.5 )
M06 T0
M03
G00 X16.75 Y11
G01 F30 Z-3.4
G02 F300 X16.375 Y10.783494 I-0.25 J0
G02 Y11.216506 I0.125 J0.216506
G02 X16.75 Y11 I0.125 J-0.216506
G01 F30 Z-6.8
G02 F300 X16.375 Y10.783494 I-0.25 J0
G02 Y11.216506 I0.125 J0.216506
G02 X16.75 Y11 I0.125 J-0.216506
G00 Z1.5
G00 Y3
G01 F30 Z-3.4
G02 F300 X16.375 Y2.783494 I-0.25 J0
G02 Y3.216506 I0.125 J0.216506
G02 X16.75 Y3 I0.125 J-0.216506
G01 F30 Z-6.8
G02 F300 X16.375 Y2.783494 I-0.25 J0
G02 Y3.216506 I0.125 J0.216506
G02 X16.75 Y3 I0.125 J-0.216506
G00 Z1.5
G00 X-16.25
G01 F30 Z-3.4
G02 F300 X-16.625 Y2.783494 I-0.25 J0
G02 Y3.216506 I0.125 J0.216506
G02 X-16.25 Y3 I0.125 J-0.216506
G01 F30 Z-6.8
G02 F300 X-16.625 Y2.783494 I-0.25 J0
G02 Y3.216506 I0.125 J0.216506
G02 X-16.25 Y3 I0.125 J-0.216506
G00 Z1.5
G00 Y11
G01 F30 Z-3.4
G02 F300 X-16.625 Y10.783494 I-0.25 J0
G02 Y11.216506 I0.125 J0.216506
G02 X-16.25 Y11 I0.125 J-0.216506
G01 F30 Z-6.8
G02 F300 X-16.625 Y10.783494 I-0.25 J0
G02 Y11.216506 I0.125 J0.216506
G02 X-16.25 Y11 I0.125 J-0.216506
( 21mm )
G00 Z1.5
G00 X9.25 Y0
G01 F30 Z-3.4
G02 F300 X-4.625 Y-8.010735 I-9.25 J0
G02 Y8.010735 I4.625 J8.010735
G02 X9.25 Y0 I4.625 J-8.010735
G01 F30 Z-6.8
G02 F300 X-4.625 Y-8.010735 I-9.25 J0
G02 Y8.010735 I4.625 J8.010735
G02 X9.25 Y0 I4.625 J-8.010735
( outer kreis )
G00 Z1.5
G00 X22.75 Y6
G01 F30 Z-3.4
G03 F300 X-11.375 Y25.702078 I-22.75 J0
G03 Y-13.702078 I11.375 J-19.702078
G03 X22.75 Y6 I11.375 J19.702078
G01 F30 Z-6.8
G03 F300 X-11.375 Y25.702078 I-22.75 J0
G03 Y-13.702078 I11.375 J-19.702078
G03 X22.75 Y6 I11.375 J19.702078
G00 Z1.5
M05
M30
